packages/web-icons/svgs/more_list.svg

<svg viewBox="0 0 12 52" xmlns="http://www.w3.org/2000/svg" class="ridi_icon"><path d="M0 45.1c0 3.3 2.7 6 6 6s6-2.7 6-6-2.7-6-6-6-6 2.7-6 6zM0 26c0 3.3 2.7 6 6 6s6-2.7 6-6-2.7-6-6-6-6 2.7-6 6zM0 6.9c0 3.3 2.7 6 6 6s6-2.7 6-6-2.7-6-6-6-6 2.7-6 6z"/></svg>

<?xml version="1.0" encoding="UTF-8"?>
<svg width="12px" height="52px" viewBox="0 0 12 52" version="1.1" xmlns="http://www.w3.org/2000/svg">
  <!-- Generator: Sketch 41.2 (35397) - http://www.bohemiancoding.com/sketch -->
  <title>more_list</title>
  <desc>Created with Sketch.</desc>
  <defs></defs>
  <g id="Page-1" stroke="none" stroke-width="1" fill="none" fill-rule="evenodd">
    <g id="more_list" fill="#000000">
      <g id="레이어_1">
        <path d="M0,45.1 C0,48.4 2.7,51.1 6,51.1 C9.3,51.1 12,48.4 12,45.1 C12,41.8 9.3,39.1 6,39.1 C2.7,39.1 0,41.8 0,45.1 Z M0,26 C0,29.3 2.7,32 6,32 C9.3,32 12,29.3 12,26 C12,22.7 9.3,20 6,20 C2.7,20 0,22.7 0,26 Z M0,6.9 C0,10.2 2.7,12.9 6,12.9 C9.3,12.9 12,10.2 12,6.9 C12,3.6 9.3,0.9 6,0.9 C2.7,0.9 0,3.6 0,6.9 Z" id="Shape"></path>
      </g>
    </g>
  </g>
</svg>
